X: 959
T: All In Good Time
R: jig
M: 6/8
K: Bminor
|:e|fdB BAF|ABA AFA|ABB BAB|dgf eag|
fdB BAF|ABA AFA|BAF Aag|fdc d2:|
|:B|Aaa agf|efg efg|~f3 gfg|ecA
[1 A2e|faa agf|efg efg|~f3 gec|edc d2:|
[2 BAG|EFF GFG|AFd AFA|Bed cag|fdc d2||

